public/image/arrowUpDown.svg

<svg xmlns="http://www.w3.org/2000/svg" width="24" height="24" fill="none" viewBox="0 0 24 24"><path fill="white" d="M7.17506 4.38604C7.31242 4.2134 7.50559 4.08739 7.72717 4.03547 7.90499 3.9883 8.09354 3.98818 8.27142 4.0351 8.49399 4.08686 8.688 4.21336 8.82573 4.38679L11.7014 7.14355C12.0995 7.52519 12.0995 8.14394 11.7014 8.52557L11.669 8.55667C11.2709 8.9383 10.6254 8.9383 10.2273 8.55667L9.04243 7.42076 9.04243 14.9999C9.04243 15.5522 8.59597 15.9999 8.04523 15.9999H7.95496C7.40422 15.9999 6.95776 15.5522 6.95776 14.9999L6.95776 7.42058 5.77266 8.55667C5.37456 8.9383 4.72911 8.9383 4.33101 8.55667L4.29857 8.52557C3.90048 8.14394 3.90048 7.52519 4.29857 7.14355L7.17506 4.38604zM16.8249 19.6139C16.6876 19.7865 16.4944 19.9126 16.2728 19.9645 16.095 20.0116 15.9065 20.0118 15.7286 19.9648 15.506 19.9131 15.312 19.7866 15.1743 19.6131L12.2986 16.8564C11.9005 16.4748 11.9005 15.856 12.2986 15.4744L12.331 15.4433C12.7291 15.0616 13.3746 15.0616 13.7727 15.4433L14.9576 16.5792V9C14.9576 8.44772 15.404 8 15.9548 8H16.045C16.5958 8 17.0422 8.44772 17.0422 9L17.0422 16.5794 18.2273 15.4433C18.6254 15.0616 19.2709 15.0616 19.669 15.4433L19.7014 15.4744C20.0995 15.856 20.0995 16.4748 19.7014 16.8564L16.8249 19.6139z"/></svg>

<svg xmlns="http://www.w3.org/2000/svg" width="24" height="24" fill="none" viewBox="0 0 24 24"><path fill="#fff" d="M7.175 4.386a.997.997 0 01.552-.35c.178-.048.367-.048.544 0a.997.997 0 01.555.35L11.7 7.145c.399.381.399 1 0 1.382l-.032.03a1.05 1.05 0 01-1.442 0L9.042 7.422V15c0 .552-.446 1-.997 1h-.09a.999.999 0 01-.997-1V7.42L5.773 8.558a1.05 1.05 0 01-1.442 0l-.032-.031a.949.949 0 010-1.382l2.876-2.758zm9.65 15.228a.997.997 0 01-.552.35 1.067 1.067 0 01-.544 0 .996.996 0 01-.555-.35L12.3 16.855a.949.949 0 010-1.382l.032-.03a1.05 1.05 0 011.442 0l1.185 1.135V9c0-.552.446-1 .997-1h.09a1 1 0 01.997 1v7.58l1.185-1.137a1.05 1.05 0 011.442 0l.032.031a.95.95 0 010 1.382l-2.876 2.758z"/></svg>
